X: 1342
T: Jenny Dang the Weaver.   a Reel.
%R: reel
B: Niel Gow & Sons "Complete Repository" v.1 p.34 #2
Z: 2021 John Chambers <jc:trillian.mit.edu>
M: C|
L: 1/8
K: D
% - - - - - - - - - -
% Voice 1 formatted for compactness and proofreading.
V: 1 staves=2
f !segno!|\
d>A A/A/A TAFAB | d>A A/A/A Tf2ef | {c}d>B B/B/B TB>ABd | ABde faef || d>A A/A/A T.A>.GAB |
d>A A/A/A Tf2ef | {c}d>B B/B/B (TB>AB)d | ABde Tf2e |]| f | Td>efd e>fge | d>efd ~e2dB | defd e>Bg>B |
a>A A/A/A Tf2ef || ~d>efd ~e>fge | d>efd Te2dB | ~d>efd e>fge | (f/g/a).AHg faef !segno!|]
% - - - - - - - - - -
% Voice 2 preserves the book's staff layout.
V: 2 clef=bass middle=d
z !segno!|\
A2A2 A2A2 | A2A2 A2^A2 | B2B2 B2B2 | B2B2 B2c2 || d2A2 A2A2 |
A2A2 A2^A2 | B2B2 B2B2 | B2B2 B2B |]| z | f2d2 g2e2 | f2d2 a2e2 | f2d2 g2e2 |
a2A2 d2d2 || f2d2 g2d2 | f2d2 a2g2 | f2d2 g2e2 | d2A2 d2[c2A2] !segno! |]


